X: 77
T: Wright's humour
%%VWML:Wrights-3753-p39-0
F: http://www.vwml.org/record/Wrights/3753/p39
%R: reel
B: Daniel Wright "Wright's Compleat Collection of Celebrated Country Dances" 1740 p.39
S: http://library.efdss.org/cgi-bin/dancebooks.cgi
Z: 2014 John Chambers <jc:trillian.mit.edu>
N: Repeats modified to match the "Each strain twice" instruction.
N: Actually, in this tune it saye "Each stain twice."
M: 2/2 % The book has just "2".
L: 1/8
K: G
%-------------------------
|:\
d2d2 g2fg | agfe d4 | d2e2 c2d2 | A2B2 A2D2 |\
d2d2 g2fg | agfe d4 | d2cB A2GF | E2A2 D4 :|
|:\
DEFG A2A2 | d2c2 B4 | Bcdc B2A2 | G2A2 F2D2 |\ defe g2fe | d2c2 B4 | d2c2 B2AG | A2F2 G4 :| %-------------------------
%%center Each strain twice
%%begintext align
%% The 1st Man sett to the 2d Wo. and turn single, %% then turn his Partner .| The 1st Wo. do the same :| %% Then 1st Cu. cross over and half Figure a Top, %% with the 2d Cu. .| Then the whole Figure at the %% Bottom, with the 3d Cu. and turn your Partner. %%endtext
%-------------------------
%%sep 2 4 300
T: Hatton Wall
T: Longways for as many as will.
%R: march, reel
B: Daniel Wright "Wright's Compleat Collection of Celebrated Country Dances" 1740 p.39
S: http://library.efdss.org/cgi-bin/dancebooks.cgi
Z: 2014 John Chambers <jc:trillian.mit.edu>
N: Repeats modified to match the "Each strain twice" instruction.
N: Actually, in this tune it saye "Each stain twice."
M: C|
L: 1/8
K: G
%-------------------------
Bc |\
d2B2 G2E2 | c2A2 F2D2 | G2D2 A2D2 | GAB2 A2D2 |\
d2B2 G2E2 | c2A2 F2D2 | d2B2 G2e2 | A2^c2 d2 :|
|: ga |\
b2G2 (G2F2) | a2F2 (F2E2) | g2E2 (E2D2) | f2D2 (D2C2) |\
d2d2 d2d2 | d6 c2 | B2G2 A2F2 | G6 :|
%-------------------------
%%center Each strain twice
%%begintext align
%% The 1st Man goes the Hey on the Wo. side, & his
%% Partner on the Mens side .| Then they both hey
%% on their own sides, and cast off into the 2d Cu.
%% Place :| Then the 1st Cu. goes the whole Figure
%% between the 3d Cu. and lead up thro' the Top .| then
%% the 1st Cu. Right and Left quite round at bottom
%% and turn Hands
%%endtext
%-------------------------
%%sep 2 4 300
